X: 1
T:Constant Billy, Eynsham
S:CJS
A:Eynsham
M:6/8
P:A2BA(AB)2
K:G
P:A
|:G2d BGB|cBc ABc|dBG EFG|DEF G2D:|
P:B
  Bcd EFG|ABc dBG|Bcd EFG|ABc d2D|
  G2d BGB|cBc ABc|dBG EFG|DEF G2z||
